X: 21696
T: Kilty Cameron's Tiddlers
R: jig
M: 6/8
K: Amajor
|:EAE A (3cde|dcA ecA|Fdd dcd|BcA GFE|
EAE A (3cde|dcA ecA|FAd cAF|EGB A3:|
|:[Cc]EA cBA|DFA dcB|E (3E/G/B/ e e^de|fe^d e2 =d|
cBc Ace|dcd FBA|GFG (3E/G/B/ ed|cdB A3:|

